!!!COM: Beethoven
!!!OTL: 6 Variationen uber "Nel cor piu non mi sento" von G. Paisiello
!!!Variation: Variation 1 c
**function	**kern	**comments	**kern	**kern
*M6/8	*M6/8	*	*staff2	*staff1
*G:	*G:	*	*clefF4	*clefG2
*	*tb16	*	*k[f#]	*k[f#]
*	*	*	*M6/8	*M6/8
*	*	*	*G:	*G:
*	*	*	*tb16	*tb16
8T	8I	.	8r	16ddLL
.	.	.	.	16bJJ
=	=	=	=29	=29
4.P	4.V/ii	Sequence	4.r	16ELL
.	.	.	.	16G#
.	.	.	.	16B
.	.	.	.	16e
.	.	.	.	16g#
.	.	.	.	16bJJ
4.P	4.V6/ii	.	4G# 4e	16eeLL
.	.	.	.	16gg#
.	.	.	.	16bb
.	.	.	.	16gg#
.	.	.	8r	16ee
.	.	.	.	16ddJJ
=	=	=	=30	=30
2.P	2.ii	Sequence	4A 4e	16ccLL
.	.	.	.	16dd
.	.	.	.	16ee
.	.	.	.	16dd
.	.	.	8r	16cc
.	.	.	.	16bJJ
.	.	.	4.r	16aLL
.	.	.	.	16b
.	.	.	.	16cc
.	.	.	.	16b
.	.	.	.	16a
.	.	.	.	16gJJ
=	=	=	=31	=31
4.D	4.V	Sequence	4D 4d	16f#LL
.	.	.	.	16d
.	.	.	.	16f#
.	.	.	.	16a
.	.	.	8r	16dd
.	.	.	.	16ff#JJ
4.D	4.V6	.	4F# 4d	16aaLL
.	.	.	.	16gg
.	.	.	.	16ff#
.	.	.	.	16ee
.	.	.	8r	16dd
.	.	.	.	16ccJJ
=	=	=	=32	=32
4.T	4.I	Sequence	4G 4d	16bLL
.	.	.	.	16cc
.	.	.	.	16dd
.	.	.	.	16cc
.	.	.	8r	16b
.	.	.	.	16aJJ
4.T	4.I	.	4.r	16gLL
.	.	.	.	16a
.	.	.	.	16b-
.	.	.	.	16b
.	.	.	.	16cc
.	.	.	.	16cc#JJ
=	=	=	=33	=33
2.P	2.V43/V	.	2.E 2.G 2.A	16ddLL
.	.	.	.	16dd#
.	.	.	.	16ee
.	.	.	.	16ff
.	.	.	.	16ff#
.	.	.	.	16ggJJ
.	.	.	.	16aaLL
.	.	.	.	16gg
.	.	.	.	16ff#
.	.	.	.	16ee
.	.	.	.	16dd
.	.	.	.	16cc#JJ
=	=	=	=34	=34
2.D	2.V	.	4D; 4F#; 4A;	4dd;
.	.	.	8r	16cc#LL
.	.	.	.	16ddJJ
.	.	.	4r	16cc#LL
.	.	.	.	16dd
.	.	.	.	16cc#
.	.	.	.	16dd
.	.	.	8r	16ee
.	.	.	.	16ddJJ
=	=	=	=35	=35
4.D	4.V65	4.D	(8F#	16ccLL
.	.	.	.	16b
.	.	.	4d)	16a
.	.	.	.	16dd
.	.	.	.	16cc#
.	.	.	.	16ddJJ
4.D	4.I	4.T	(8G	16bLL
.	.	.	.	16a
.	.	.	4d)	16g
.	.	.	.	16dd
.	.	.	.	16cc#
.	.	.	.	16ddJJ
=	=	=	=36	=36
2.D	2.V	4.D	(8D	16aLL
.	.	.	.	16g
.	.	.	4d)	16f#
.	.	.	.	16dd
.	.	.	.	16cc#
.	.	.	.	16ddJJ
.	.	.	4.r	16dLL
.	.	.	.	16dd
.	.	.	.	16f#
.	.	.	.	16dd
.	.	.	.	16a
.	.	.	.	16ddJJ
*-	*-	*-	*-	*-
